public/assets/media/icons/cloudobjectstorage.svg

<svg width="400" height="400" viewBox="0 0 400 400" fill="none" xmlns="http://www.w3.org/2000/svg">
<rect width="400" height="400" fill="white"/>
<path fill-rule="evenodd" clip-rule="evenodd" d="M107.669 144.96C106.185 138.884 105.4 132.55 105.4 126.04C105.4 80.4433 143.904 43.48 191.4 43.48C237.832 43.48 275.669 78.8045 277.342 122.986C279.331 122.732 281.359 122.6 283.42 122.6C308.593 122.6 329 142.237 329 166.46C329 190.683 308.593 210.32 283.42 210.32C283.319 210.32 283.219 210.32 283.118 210.319C283.062 210.319 283.006 210.318 282.95 210.318C282.82 210.319 282.69 210.32 282.56 210.32H103.68C85.6313 210.32 71 195.689 71 177.64C71 159.591 85.6313 144.96 103.68 144.96H107.669Z" fill="#D1C5FF"/>
<path fill-rule="evenodd" clip-rule="evenodd" d="M107.669 144.96C106.185 138.884 105.4 132.55 105.4 126.04C105.4 80.4433 143.904 43.48 191.4 43.48C237.832 43.48 275.669 78.8045 277.342 122.986C279.331 122.732 281.359 122.6 283.42 122.6C308.593 122.6 329 142.237 329 166.46C329 190.683 308.593 210.32 283.42 210.32C283.319 210.32 283.219 210.32 283.118 210.319C283.062 210.319 283.006 210.318 282.95 210.318C282.82 210.319 282.69 210.32 282.56 210.32H103.68C85.6313 210.32 71 195.689 71 177.64C71 159.591 85.6313 144.96 103.68 144.96H107.669Z" fill="url(#paint0_linear)"/>
<path d="M105.4 203.44C105.4 197.74 110.02 193.12 115.72 193.12H282.56C288.26 193.12 292.88 197.74 292.88 203.44V232.68C292.88 238.38 288.26 243 282.56 243H115.72C110.02 243 105.4 238.38 105.4 232.68V203.44Z" fill="#DAD8FF"/>
<path d="M105.4 260.2C105.4 254.5 110.02 249.88 115.72 249.88H282.56C288.26 249.88 292.88 254.5 292.88 260.2V289.44C292.88 295.14 288.26 299.76 282.56 299.76H115.72C110.02 299.76 105.4 295.14 105.4 289.44V260.2Z" fill="#DAD8FF"/>
<path d="M105.4 316.96C105.4 311.26 110.02 306.64 115.72 306.64H282.56C288.26 306.64 292.88 311.26 292.88 316.96V346.2C292.88 351.9 288.26 356.52 282.56 356.52H115.72C110.02 356.52 105.4 351.9 105.4 346.2V316.96Z" fill="#DAD8FF"/>
<path fill-rule="evenodd" clip-rule="evenodd" d="M267.08 221.5C267.08 223.875 265.155 225.8 262.78 225.8H193.98C191.605 225.8 189.68 223.875 189.68 221.5C189.68 219.125 191.605 217.2 193.98 217.2H262.78C265.155 217.2 267.08 219.125 267.08 221.5Z" fill="white"/>
<path fill-rule="evenodd" clip-rule="evenodd" d="M267.08 278.26C267.08 280.635 265.155 282.56 262.78 282.56H193.98C191.605 282.56 189.68 280.635 189.68 278.26C189.68 275.885 191.605 273.96 193.98 273.96H262.78C265.155 273.96 267.08 275.885 267.08 278.26Z" fill="white"/>
<path fill-rule="evenodd" clip-rule="evenodd" d="M267.08 335.02C267.08 337.395 265.155 339.32 262.78 339.32H193.98C191.605 339.32 189.68 337.395 189.68 335.02C189.68 332.645 191.605 330.72 193.98 330.72H262.78C265.155 330.72 267.08 332.645 267.08 335.02Z" fill="white"/>
<path fill-rule="evenodd" clip-rule="evenodd" d="M203.44 136.36L203.44 193.12L196.56 193.12L196.56 136.36L203.44 136.36Z" fill="#2B175C"/>
<path fill-rule="evenodd" clip-rule="evenodd" d="M146.68 157L172.809 157C174.527 157 175.92 158.419 175.92 160.168L175.92 193.12L169.699 193.12L169.699 163.337L146.68 163.337L146.68 157Z" fill="#2B175C"/>
<path fill-rule="evenodd" clip-rule="evenodd" d="M253.32 157L227.191 157C225.473 157 224.08 158.419 224.08 160.168L224.08 193.12L230.301 193.12L230.301 163.337L253.32 163.337L253.32 157Z" fill="#2B175C"/>
<path d="M187.96 131.2C187.96 124.55 193.35 119.16 200 119.16C206.649 119.16 212.04 124.55 212.04 131.2C212.04 137.849 206.649 143.24 200 143.24C193.35 143.24 187.96 137.85 187.96 131.2Z" fill="white"/>
<path d="M127.76 159.58C127.76 153.405 132.765 148.4 138.94 148.4C145.115 148.4 150.12 153.405 150.12 159.58C150.12 165.755 145.115 170.76 138.94 170.76C132.765 170.76 127.76 165.755 127.76 159.58Z" fill="white"/>
<path d="M272.24 159.58C272.24 153.405 267.235 148.4 261.06 148.4C254.885 148.4 249.88 153.405 249.88 159.58C249.88 165.755 254.885 170.76 261.06 170.76C267.235 170.76 272.24 165.755 272.24 159.58Z" fill="white"/>
<path d="M148.4 220.64C148.4 224.44 145.32 227.52 141.52 227.52C137.72 227.52 134.64 224.44 134.64 220.64C134.64 216.84 137.72 213.76 141.52 213.76C145.32 213.76 148.4 216.84 148.4 220.64Z" fill="#6E62C4"/>
<path d="M148.4 277.4C148.4 281.2 145.32 284.28 141.52 284.28C137.72 284.28 134.64 281.2 134.64 277.4C134.64 273.6 137.72 270.52 141.52 270.52C145.32 270.52 148.4 273.6 148.4 277.4Z" fill="#6E62C4"/>
<path d="M148.4 334.16C148.4 337.96 145.32 341.04 141.52 341.04C137.72 341.04 134.64 337.96 134.64 334.16C134.64 330.36 137.72 327.28 141.52 327.28C145.32 327.28 148.4 330.36 148.4 334.16Z" fill="#6E62C4"/>
<path d="M174.2 220.64C174.2 224.44 171.12 227.52 167.32 227.52C163.52 227.52 160.44 224.44 160.44 220.64C160.44 216.84 163.52 213.76 167.32 213.76C171.12 213.76 174.2 216.84 174.2 220.64Z" fill="#6E62C4"/>
<path d="M174.2 277.4C174.2 281.2 171.12 284.28 167.32 284.28C163.52 284.28 160.44 281.2 160.44 277.4C160.44 273.6 163.52 270.52 167.32 270.52C171.12 270.52 174.2 273.6 174.2 277.4Z" fill="#6E62C4"/>
<path d="M174.2 334.16C174.2 337.96 171.12 341.04 167.32 341.04C163.52 341.04 160.44 337.96 160.44 334.16C160.44 330.36 163.52 327.28 167.32 327.28C171.12 327.28 174.2 330.36 174.2 334.16Z" fill="#6E62C4"/>
<defs>
<linearGradient id="paint0_linear" x1="91.8418" y1="26.5848" x2="432.313" y2="92.8269" gradientUnits="userSpaceOnUse">
<stop stop-color="#584DCB"/>
<stop offset="1" stop-color="#6C8CFE"/>
</linearGradient>
</defs>
</svg>

<?xml version="1.0" encoding="utf-8"?>
<!-- Generator: Adobe Illustrator 23.0.1, SVG Export Plug-In . SVG Version: 6.00 Build 0)  -->
<svg version="1.1" id="Layer_1" xmlns="http://www.w3.org/2000/svg" xmlns:xlink="http://www.w3.org/1999/xlink" x="0px" y="0px"
	 viewBox="0 0 400 400" style="enable-background:new 0 0 400 400;" xml:space="preserve">
<style type="text/css">
	.st0{fill-rule:evenodd;clip-rule:evenodd;fill:#D1C5FF;}
	.st1{fill-rule:evenodd;clip-rule:evenodd;fill:url(#SVGID_1_);}
	.st2{fill:#DAD8FF;}
	.st3{fill-rule:evenodd;clip-rule:evenodd;fill:#FFFFFF;}
	.st4{fill-rule:evenodd;clip-rule:evenodd;fill:#2B175C;}
	.st5{fill:#FFFFFF;}
	.st6{fill:#6E62C4;}
</style>
<path class="st0" d="M107.7,145c-1.5-6.1-2.3-12.4-2.3-18.9c0-45.6,38.5-82.6,86-82.6c46.4,0,84.3,35.3,85.9,79.5
	c2-0.3,4-0.4,6.1-0.4c25.2,0,45.6,19.6,45.6,43.9s-20.4,43.9-45.6,43.9c-0.1,0-0.2,0-0.3,0c-0.1,0-0.1,0-0.2,0c-0.1,0-0.3,0-0.4,0
	H103.7c-18,0-32.7-14.6-32.7-32.7S85.6,145,103.7,145H107.7z"/>
<linearGradient id="SVGID_1_" gradientUnits="userSpaceOnUse" x1="75.1686" y1="287.7185" x2="415.6399" y2="221.4764" gradientTransform="matrix(1 0 0 -1 0 400)">
	<stop  offset="0" style="stop-color:#584DCB"/>
	<stop  offset="1" style="stop-color:#6C8CFE"/>
</linearGradient>
<path class="st1" d="M107.7,145c-1.5-6.1-2.3-12.4-2.3-18.9c0-45.6,38.5-82.6,86-82.6c46.4,0,84.3,35.3,85.9,79.5
	c2-0.3,4-0.4,6.1-0.4c25.2,0,45.6,19.6,45.6,43.9s-20.4,43.9-45.6,43.9c-0.1,0-0.2,0-0.3,0c-0.1,0-0.1,0-0.2,0c-0.1,0-0.3,0-0.4,0
	H103.7c-18,0-32.7-14.6-32.7-32.7S85.6,145,103.7,145H107.7z"/>
<path class="st2" d="M105.4,203.4c0-5.7,4.6-10.3,10.3-10.3h166.8c5.7,0,10.3,4.6,10.3,10.3v29.2c0,5.7-4.6,10.3-10.3,10.3H115.7
	c-5.7,0-10.3-4.6-10.3-10.3V203.4z"/>
<path class="st2" d="M105.4,260.2c0-5.7,4.6-10.3,10.3-10.3h166.8c5.7,0,10.3,4.6,10.3,10.3v29.2c0,5.7-4.6,10.3-10.3,10.3H115.7
	c-5.7,0-10.3-4.6-10.3-10.3V260.2z"/>
<path class="st2" d="M105.4,317c0-5.7,4.6-10.3,10.3-10.3h166.8c5.7,0,10.3,4.6,10.3,10.3v29.2c0,5.7-4.6,10.3-10.3,10.3H115.7
	c-5.7,0-10.3-4.6-10.3-10.3V317z"/>
<path class="st3" d="M267.1,221.5c0,2.4-1.9,4.3-4.3,4.3H194c-2.4,0-4.3-1.9-4.3-4.3s1.9-4.3,4.3-4.3h68.8
	C265.2,217.2,267.1,219.1,267.1,221.5z"/>
<path class="st3" d="M267.1,278.3c0,2.4-1.9,4.3-4.3,4.3H194c-2.4,0-4.3-1.9-4.3-4.3s1.9-4.3,4.3-4.3h68.8
	C265.2,274,267.1,275.9,267.1,278.3z"/>
<path class="st3" d="M267.1,335c0,2.4-1.9,4.3-4.3,4.3H194c-2.4,0-4.3-1.9-4.3-4.3s1.9-4.3,4.3-4.3h68.8
	C265.2,330.7,267.1,332.6,267.1,335z"/>
<path class="st4" d="M203.4,136.4v56.8h-6.9v-56.8H203.4z"/>
<path class="st4" d="M146.7,157h26.1c1.7,0,3.1,1.4,3.1,3.2v33h-6.2v-29.8h-23V157z"/>
<path class="st4" d="M253.3,157h-26.1c-1.7,0-3.1,1.4-3.1,3.2v33h6.2v-29.8h23V157z"/>
<path class="st5" d="M188,131.2c0-6.6,5.4-12,12-12c6.6,0,12,5.4,12,12c0,6.6-5.4,12-12,12C193.4,143.2,188,137.9,188,131.2z"/>
<path class="st5" d="M127.8,159.6c0-6.2,5-11.2,11.2-11.2s11.2,5,11.2,11.2s-5,11.2-11.2,11.2S127.8,165.8,127.8,159.6z"/>
<path class="st5" d="M272.2,159.6c0-6.2-5-11.2-11.2-11.2c-6.2,0-11.2,5-11.2,11.2s5,11.2,11.2,11.2
	C267.2,170.8,272.2,165.8,272.2,159.6z"/>
<path class="st6" d="M148.4,220.6c0,3.8-3.1,6.9-6.9,6.9s-6.9-3.1-6.9-6.9s3.1-6.9,6.9-6.9S148.4,216.8,148.4,220.6z"/>
<path class="st6" d="M148.4,277.4c0,3.8-3.1,6.9-6.9,6.9s-6.9-3.1-6.9-6.9c0-3.8,3.1-6.9,6.9-6.9S148.4,273.6,148.4,277.4z"/>
<path class="st6" d="M148.4,334.2c0,3.8-3.1,6.9-6.9,6.9s-6.9-3.1-6.9-6.9c0-3.8,3.1-6.9,6.9-6.9S148.4,330.4,148.4,334.2z"/>
<path class="st6" d="M174.2,220.6c0,3.8-3.1,6.9-6.9,6.9c-3.8,0-6.9-3.1-6.9-6.9s3.1-6.9,6.9-6.9
	C171.1,213.8,174.2,216.8,174.2,220.6z"/>
<path class="st6" d="M174.2,277.4c0,3.8-3.1,6.9-6.9,6.9c-3.8,0-6.9-3.1-6.9-6.9c0-3.8,3.1-6.9,6.9-6.9
	C171.1,270.5,174.2,273.6,174.2,277.4z"/>
<path class="st6" d="M174.2,334.2c0,3.8-3.1,6.9-6.9,6.9c-3.8,0-6.9-3.1-6.9-6.9c0-3.8,3.1-6.9,6.9-6.9
	C171.1,327.3,174.2,330.4,174.2,334.2z"/>
</svg>
